icons/invoice-accepted.svg

<svg
  xmlns="http://www.w3.org/2000/svg"
  viewBox="0 0 500 500"
  width="500"
  height="500"
  fill="#ffffff"
>
  <path d="M379.3 276.8a109.1 109.1 0 1 0 109.1 109.1 109.2 109.2 0 0 0-109.1-109.1zm62.5 77.4l-76 76a9.6 9.6 0 0 1-6.9 2.9 9.8 9.8 0 0 1-7-2.9L311.7 390a9.8 9.8 0 0 1 13.9-13.8l33.3 33.3 69.1-69.2a9.8 9.8 0 0 1 13.8 13.9z" />
  <path d="M211.6 141.6a53.3 53.3 0 0 1-24.8-6.6l-4.5 17.5c5.7 3.3 15.4 6 25.5 6.4v14.3h14.6v-15.3c17.3-3 26.7-14.4 26.7-27.7s-7.2-21.8-25-28.1c-12.8-4.8-18-7.9-18-12.9s3.1-8.4 12.9-8.4 17.7 3.5 21.6 5.1l4.3-16.9c-4.9-2.4-11.7-4.5-21.7-4.9V50.9h-14.7v14.2c-16 3.1-25.3 13.5-25.3 26.7s10.9 22 26.9 27.4c11.1 3.8 15.9 7.4 15.9 13.1s-5.8 9.3-14.4 9.3z" />
  <path d="M292 237.3H139.4a10.2 10.2 0 1 0 0 20.4H292a10.2 10.2 0 1 0 0-20.4z" />
  <path d="M129.1 208a10.3 10.3 0 0 0 10.3 10.2H292a10.3 10.3 0 1 0 0-20.5H139.4a10.3 10.3 0 0 0-10.3 10.3z" />
  <path d="M301.8 284.6a10.2 10.2 0 0 0-9.8-7.4H139.4a10.3 10.3 0 1 0 0 20.5h146.8a138.7 138.7 0 0 1 15.6-13.1z" />
  <path d="M208.5 327.2a10.3 10.3 0 0 0 10.2 10.3h40.4a126.4 126.4 0 0 1 11.1-20.5h-51.5a10.2 10.2 0 0 0-10.2 10.2z" />
  <path d="M249.4 378.7H139.2l.5 10.7c.4 7.6-.8 29.4-10.4 39.5-3.5 3.6-7.8 5.3-13.3 5.3s-10.2-1.7-13.9-5.5c-9.7-10.2-11.1-31.9-10.8-39.8V47.1a55.2 55.2 0 0 0-5.4-21.6h235.8c3.5.7 19.1 5 19.1 23.6v217a124.5 124.5 0 0 1 20.4-3.8V49.1c0-30.3-24.2-42-37-44H53.8c-27.6 0-39.6 24.2-42 37L11.6 93h59.2v295.5c-.2 3.6-1 36 16.5 54.3a38.8 38.8 0 0 0 28.7 11.9h153.4a124.3 124.3 0 0 1-20.3-68.2q0-3.9.3-7.8z" />
</svg>

<svg xmlns="http://www.w3.org/2000/svg" viewBox="0 0 500 500">
  <g id="invoice-accpeted">
    <g id="invoicedAcceptedIcon">
      <path id="check" d="M379.3,276.8A109.1,109.1,0,1,0,488.4,385.9,109.2,109.2,0,0,0,379.3,276.8Zm62.5,77.4-76,76a9.6,9.6,0,0,1-6.9,2.9,9.8,9.8,0,0,1-7-2.9L311.7,390a9.8,9.8,0,0,1,13.9-13.8l33.3,33.3L428,340.3a9.8,9.8,0,0,1,13.8,13.9Z"/>
      <path id="dollarSign" d="M211.6,141.6a53.3,53.3,0,0,1-24.8-6.6l-4.5,17.5c5.7,3.3,15.4,6,25.5,6.4v14.3h14.6V157.9c17.3-3,26.7-14.4,26.7-27.7s-7.2-21.8-25-28.1c-12.8-4.8-18-7.9-18-12.9s3.1-8.4,12.9-8.4,17.7,3.5,21.6,5.1L244.9,69c-4.9-2.4-11.7-4.5-21.7-4.9V50.9H208.5V65.1c-16,3.1-25.3,13.5-25.3,26.7s10.9,22,26.9,27.4c11.1,3.8,15.9,7.4,15.9,13.1S220.2,141.6,211.6,141.6Z"/>
      <path id="line4" d="M292,237.3H139.4a10.2,10.2,0,1,0,0,20.4H292a10.2,10.2,0,1,0,0-20.4Z"/>
      <path id="line3" d="M129.1,208a10.3,10.3,0,0,0,10.3,10.2H292a10.3,10.3,0,1,0,0-20.5H139.4A10.3,10.3,0,0,0,129.1,208Z"/>
      <path id="line2" d="M301.8,284.6a10.2,10.2,0,0,0-9.8-7.4H139.4a10.3,10.3,0,1,0,0,20.5H286.2A138.7,138.7,0,0,1,301.8,284.6Z"/>
      <path id="line1" d="M208.5,327.2a10.3,10.3,0,0,0,10.2,10.3h40.4A126.4,126.4,0,0,1,270.2,317H218.7A10.2,10.2,0,0,0,208.5,327.2Z"/>
      <path id="outline" d="M249.4,378.7H139.2l.5,10.7c.4,7.6-.8,29.4-10.4,39.5-3.5,3.6-7.8,5.3-13.3,5.3s-10.2-1.7-13.9-5.5c-9.7-10.2-11.1-31.9-10.8-39.8V47.1a55.2,55.2,0,0,0-5.4-21.6H321.7c3.5.7,19.1,5,19.1,23.6v217a124.5,124.5,0,0,1,20.4-3.8V49.1c0-30.3-24.2-42-37-44H53.8c-27.6,0-39.6,24.2-42,37l-.2,50.9H70.8V388.5c-.2,3.6-1,36,16.5,54.3A38.8,38.8,0,0,0,116,454.7H269.4a124.3,124.3,0,0,1-20.3-68.2Q249.1,382.6,249.4,378.7Z"/>
    </g>
  </g>
</svg>
